;FLAVOR:Marlin
;TIME:1477
;Filament used: 0.706347m
;Layer height: 0.2
;MINX:23.261
;MINY:67.249
;MINZ:0.2
;MAXX:69.844
;MAXY:102.835
;MAXZ:9.84
;Generated with Cura_SteamEngine 4.8.0
M140 S65
M105
M190 S65
M104 S200
M105
M109 S200
M82 ;absolute extrusion mode
; Ender 3 Custom Start G-code
G92 E0 ; Reset Extruder
G28 ; Home all axes
G1 Z2.0 F3000 ; Move Z Axis up little to prevent scratching of Heat Bed
G1 X0.1 Y20 Z0.3 F5000.0 ; Move to start position
G1 X0.1 Y200.0 Z0.3 F1500.0 E15 ; Draw the first line
G1 X0.4 Y200.0 Z0.3 F5000.0 ; Move to side a little
G1 X0.4 Y20 Z0.3 F1500.0 E30 ; Draw the second line
G92 E0 ; Reset Extruder
G1 Z2.0 F3000 ; Move Z Axis up little to prevent scratching of Heat Bed
G1 X5 Y20 Z0.3 F5000.0 ; Move over to prevent blob squish
G92 E0
G92 E0
G1 F2700 E-5
;LAYER_COUNT:59
;LAYER:0
M107
G0 F3000 X33.135 Y69.105 Z0.2
;TYPE:SKIRT
G1 F2700 E0
G1 F1200 X34.178 Y68.628 E0.03815
G1 X35.023 Y68.299 E0.06831
G1 X36.106 Y67.949 E0.10616
G1 X36.956 Y67.726 E0.13539
G1 X38.081 Y67.498 E0.17357
G1 X38.964 Y67.371 E0.20324
G1 X40.096 Y67.274 E0.24103
G1 X40.994 Y67.249 E0.27091
G1 X42.138 Y67.283 E0.30897
G1 X43.017 Y67.359 E0.33832
G1 X44.15 Y67.522 E0.37639
G1 X45.036 Y67.703 E0.40647
G1 X46.135 Y67.994 E0.44428
G1 X46.968 Y68.265 E0.47341
G1 X48.034 Y68.68 E0.51146
G1 X48.853 Y69.055 E0.54142
G1 X49.86 Y69.588 E0.57932
G1 X50.61 Y70.041 E0.60846
G1 X51.556 Y70.687 E0.64656
G1 X52.27 Y71.237 E0.67653
G1 X53.133 Y71.986 E0.71454
G1 X53.771 Y72.608 E0.74418
G1 X54.536 Y73.443 E0.78184
G1 X55.097 Y74.13 E0.81134
G1 X55.775 Y75.064 E0.84973
G1 X56.256 Y75.812 E0.87931
G1 X56.41 Y76.084 E0.8897
G1 X56.743 Y76.128 E0.90088
G1 X57.078 Y76.182 E0.91216
G1 X57.855 Y75.928 E0.93935
G1 X58.16 Y75.852 E0.94981
G1 X58.935 Y75.701 E0.97607
G1 X59.721 Y75.628 E1.00232
G1 X60.511 Y75.635 E1.0286
G1 X61.296 Y75.722 E1.05487
G1 X62.068 Y75.888 E1.08113
G1 X62.819 Y76.131 E1.10738
G1 X63.542 Y76.448 E1.13364
G1 X63.587 Y76.473 E1.13535
G1 X63.972 Y76.57 E1.14856
G1 X64.259 Y76.655 E1.15851
G1 X65.004 Y76.917 E1.18478
G1 X65.718 Y77.254 E1.21104
G1 X66.395 Y77.66 E1.2373
G1 X67.027 Y78.134 E1.26357
G1 X67.609 Y78.668 E1.28984
G1 X68.133 Y79.259 E1.31611
G1 X68.595 Y79.9 E1.34239
G1 X68.989 Y80.584 E1.36865
G1 X69.312 Y81.304 E1.39489
G1 X69.561 Y82.053 E1.42115
G1 X69.733 Y82.824 E1.44742
G1 X69.826 Y83.608 E1.47368
G1 X69.844 Y84.134 E1.49118
G1 X69.844 Y85.954 E1.55172
G1 X69.804 Y86.743 E1.57799
G1 X69.685 Y87.523 E1.60424
G1 X69.487 Y88.288 E1.63052
G1 X69.213 Y89.028 E1.65677
G1 X68.865 Y89.737 E1.68303
G1 X68.447 Y90.408 E1.70933
G1 X67.964 Y91.032 E1.73557
G1 X67.421 Y91.605 E1.76183
G1 X66.822 Y92.12 E1.7881
G1 X66.174 Y92.571 E1.81436
G1 X65.483 Y92.955 E1.84065
G1 X64.758 Y93.267 E1.86691
G1 X64.228 Y93.442 E1.88547
G1 X63.94 Y93.526 E1.89545
G1 X63.172 Y93.708 E1.9217
G1 X62.389 Y93.812 E1.94797
G1 X61.6 Y93.836 E1.97423
G1 X61.092 Y93.801 E1.99116
G1 X60.848 Y93.86 E1.99951
G1 X60.065 Y93.968 E2.0258
G1 X59.276 Y93.997 E2.05206
G1 X58.552 Y94.008 E2.07614
G1 X57.15 Y93.976 E2.12279
G1 X56.565 Y93.941 E2.14228
G1 X56.45 Y93.93 E2.14612
G1 X56.25 Y94.283 E2.15961
G1 X55.761 Y95.042 E2.18965
G1 X55.08 Y95.976 E2.22809
G1 X54.522 Y96.657 E2.25737
G1 X53.756 Y97.491 E2.29504
G1 X53.12 Y98.109 E2.32453
G1 X52.257 Y98.857 E2.36252
G1 X51.544 Y99.407 E2.39247
G1 X50.597 Y100.053 E2.43059
G1 X49.834 Y100.511 E2.46019
G1 X48.827 Y101.041 E2.49804
G1 X48.027 Y101.406 E2.52729
G1 X46.96 Y101.822 E2.56538
G1 X46.104 Y102.1 E2.59531
G1 X45.005 Y102.388 E2.6331
G1 X44.132 Y102.564 E2.66272
G1 X42.999 Y102.726 E2.70079
G1 X42.12 Y102.802 E2.73013
G1 X40.976 Y102.835 E2.7682
G1 X40.071 Y102.808 E2.79831
G1 X38.939 Y102.709 E2.83611
G1 X38.07 Y102.584 E2.86531
G1 X36.945 Y102.356 E2.90348
G1 X36.083 Y102.129 E2.93313
G1 X35 Y101.777 E2.97101
G1 X34.159 Y101.449 E3.00103
G1 X33.117 Y100.971 E3.03916
G1 X32.345 Y100.563 E3.0682
G1 X31.372 Y99.977 E3.10598
G1 X30.631 Y99.47 E3.13584
G1 X29.733 Y98.777 E3.17357
G1 X29.065 Y98.199 E3.20295
G1 X28.245 Y97.403 E3.24096
G1 X27.633 Y96.735 E3.27109
G1 X26.904 Y95.841 E3.30946
G1 X26.382 Y95.121 E3.33904
G1 X25.766 Y94.16 E3.37701
G1 X25.333 Y93.393 E3.4063
G1 X24.831 Y92.372 E3.44414
G1 X24.487 Y91.558 E3.47353
G1 X24.103 Y90.485 E3.51144
G1 X23.845 Y89.605 E3.54194
G1 X23.589 Y88.492 E3.57993
G1 X23.441 Y87.629 E3.60905
G1 X23.311 Y86.491 E3.64714
G1 X23.261 Y85.599 E3.67686
G1 X23.262 Y84.462 E3.71468
G1 X23.313 Y83.579 E3.74409
G1 X23.444 Y82.438 E3.78229
G1 X23.596 Y81.559 E3.81196
G1 X23.855 Y80.447 E3.84994
G1 X24.107 Y79.592 E3.87958
G1 X24.49 Y78.52 E3.91745
G1 X24.841 Y77.691 E3.94739
G1 X25.345 Y76.67 E3.98526
G1 X25.777 Y75.906 E4.01445
G1 X26.394 Y74.946 E4.05241
G1 X26.915 Y74.229 E4.08188
G1 X27.641 Y73.34 E4.12006
G1 X28.256 Y72.671 E4.15028
G1 X29.077 Y71.876 E4.1883
G1 X29.741 Y71.301 E4.21751
G1 X30.644 Y70.605 E4.25543
G1 X31.387 Y70.098 E4.28535
G1 X32.36 Y69.513 E4.32311
G1 X33.135 Y69.105 E4.35224
G0 F3000 X33.301 Y69.468
G1 F1200 X34.344 Y68.991 E4.39038
G1 X35.146 Y68.68 E4.41899
G1 X36.229 Y68.33 E4.45685
G1 X37.035 Y68.118 E4.48457
G1 X38.16 Y67.89 E4.52275
G1 X38.998 Y67.77 E4.5509
G1 X40.13 Y67.673 E4.58869
G1 X40.982 Y67.649 E4.61704
G1 X42.126 Y67.683 E4.65511
G1 X42.96 Y67.755 E4.68295
G1 X44.093 Y67.918 E4.72102
G1 X44.933 Y68.09 E4.74954
G1 X46.032 Y68.381 E4.78735
G1 X46.823 Y68.638 E4.81501
G1 X47.889 Y69.053 E4.85306
G1 X48.666 Y69.409 E4.88149
G1 X49.673 Y69.942 E4.91938
G1 X50.384 Y70.371 E4.947
G1 X51.33 Y71.017 E4.9851
G1 X52.007 Y71.539 E5.01354
G1 X52.87 Y72.288 E5.05154
G1 X53.476 Y72.878 E5.07967
G1 X54.241 Y73.713 E5.11734
G1 X54.774 Y74.365 E5.14535
G1 X55.452 Y75.299 E5.18374
G1 X55.908 Y76.009 E5.2118
G1 X56.164 Y76.463 E5.22914
G1 X56.266 Y76.468 E5.23253
G1 X56.679 Y76.523 E5.24639
G1 X57.1 Y76.591 E5.26057
G1 X57.952 Y76.317 E5.29034
G1 X58.257 Y76.241 E5.3008
G1 X59.012 Y76.094 E5.32638
G1 X59.778 Y76.026 E5.35196
G1 X60.547 Y76.038 E5.37754
G1 X61.311 Y76.13 E5.40313
G1 X62.061 Y76.301 E5.42872
G1 X62.789 Y76.548 E5.45429
G1 X63.499 Y76.877 E5.48031
G1 X63.858 Y76.954 E5.49252
G1 X64.145 Y77.039 E5.50248
G1 X64.871 Y77.295 E5.52808
G1 X65.565 Y77.625 E5.55364
G1 X66.222 Y78.026 E5.57924
G1 X66.833 Y78.493 E5.60482
G1 X67.393 Y79.02 E5.6304
G1 X67.895 Y79.603 E5.65599
G1 X68.333 Y80.235 E5.68156
G1 X68.704 Y80.909 E5.70715
G1 X69.003 Y81.618 E5.73274
G1 X69.227 Y82.354 E5.75833
G1 X69.373 Y83.109 E5.78391
G1 X69.444 Y84.134 E5.81808
G1 X69.444 Y85.954 E5.87861
G1 X69.404 Y86.722 E5.90419
G1 X69.285 Y87.482 E5.92978
G1 X69.087 Y88.225 E5.95535
G1 X68.813 Y88.944 E5.98095
G1 X68.466 Y89.63 E6.00651
G1 X68.05 Y90.277 E6.0321
G1 X67.569 Y90.877 E6.05768
G1 X67.028 Y91.424 E6.08326
G1 X66.433 Y91.912 E6.10886
G1 X65.791 Y92.335 E6.13443
G1 X65.108 Y92.69 E6.16003
G1 X64.116 Y93.058 E6.19522
G1 X63.828 Y93.142 E6.2052
G1 X63.079 Y93.319 E6.2308
G1 X62.317 Y93.417 E6.25635
G1 X61.548 Y93.435 E6.28194
G1 X61.063 Y93.396 E6.29812
G1 X60.694 Y93.482 E6.31072
G1 X59.931 Y93.578 E6.3363
G1 X59.162 Y93.595 E6.36188
G1 X59.082 Y93.589 E6.36455
G1 X58.561 Y93.608 E6.38189
G1 X57.159 Y93.576 E6.42853
G1 X56.604 Y93.543 E6.44702
G1 X56.229 Y93.506 E6.45956
G1 X55.901 Y94.086 E6.48172
G1 X55.437 Y94.807 E6.51024
G1 X54.756 Y95.741 E6.54868
G1 X54.227 Y96.387 E6.57645
G1 X53.461 Y97.221 E6.61412
G1 X52.858 Y97.807 E6.64208
G1 X51.995 Y98.555 E6.68007
G1 X51.318 Y99.076 E6.70848
G1 X50.371 Y99.722 E6.74661
G1 X49.648 Y100.157 E6.77467
G1 X48.641 Y100.687 E6.81252
G1 X47.882 Y101.034 E6.84028
G1 X46.815 Y101.45 E6.87837
G1 X46.003 Y101.713 E6.90676
G1 X44.904 Y102.001 E6.94455
G1 X44.075 Y102.168 E6.97267
G1 X42.942 Y102.33 E7.01074
G1 X42.108 Y102.402 E7.03858
G1 X40.964 Y102.435 E7.07665
G1 X40.106 Y102.41 E7.1052
G1 X38.974 Y102.311 E7.14299
G1 X38.149 Y102.192 E7.17071
G1 X37.024 Y101.964 E7.20889
G1 X36.207 Y101.749 E7.23699
G1 X35.124 Y101.397 E7.27487
G1 X34.326 Y101.085 E7.30336
G1 X33.284 Y100.607 E7.34149
G1 X32.551 Y100.22 E7.36906
G1 X31.578 Y99.634 E7.40684
G1 X30.875 Y99.153 E7.43517
G1 X29.977 Y98.46 E7.4729
G1 X29.344 Y97.912 E7.50075
G1 X28.524 Y97.116 E7.53876
G1 X27.943 Y96.483 E7.56733
G1 X27.214 Y95.589 E7.6057
G1 X26.719 Y94.905 E7.63378
G1 X26.103 Y93.944 E7.67175
G1 X25.692 Y93.216 E7.69955
G1 X25.19 Y92.195 E7.7374
G1 X24.864 Y91.423 E7.76527
G1 X24.48 Y90.35 E7.80317
G1 X24.235 Y89.516 E7.83208
G1 X23.979 Y88.403 E7.87007
G1 X23.839 Y87.584 E7.8977
G1 X23.709 Y86.446 E7.9358
G1 X23.661 Y85.599 E7.96402
G1 X23.662 Y84.462 E8.00183
G1 X23.71 Y83.625 E8.02972
G1 X23.841 Y82.484 E8.06792
G1 X23.986 Y81.649 E8.09611
G1 X24.245 Y80.537 E8.13408
G1 X24.483 Y79.726 E8.16219
G1 X24.866 Y78.654 E8.20005
G1 X25.199 Y77.868 E8.22845
G1 X25.703 Y76.847 E8.26632
G1 X26.114 Y76.122 E8.29404
G1 X26.731 Y75.162 E8.33199
G1 X27.224 Y74.482 E8.35993
G1 X27.95 Y73.593 E8.3981
G1 X28.534 Y72.958 E8.4268
G1 X29.355 Y72.163 E8.46481
G1 X29.985 Y71.618 E8.49251
G1 X30.888 Y70.922 E8.53043
G1 X31.593 Y70.441 E8.55882
G1 X32.566 Y69.856 E8.59658
G1 X33.301 Y69.468 E8.62422
G0 F3000 X33.468 Y69.832
G1 F1200 X34.511 Y69.355 E8.66237
G1 X35.269 Y69.06 E8.68942
G1 X36.352 Y68.71 E8.72728
G1 X37.115 Y68.51 E8.75351
G1 X38.24 Y68.282 E8.79169
G1 X39.032 Y68.169 E8.8183
G1 X40.164 Y68.072 E8.85609
G1 X40.97 Y68.049 E8.88291
G1 X42.114 Y68.083 E8.92097
G1 X42.903 Y68.151 E8.94731
G1 X44.036 Y68.314 E8.98538
G1 X44.831 Y68.476 E9.01237
G1 X45.93 Y68.767 E9.05018
G1 X46.677 Y69.011 E9.07632
G1 X47.743 Y69.426 E9.11437
G1 X48.479 Y69.762 E9.14128
G1 X49.486 Y70.295 E9.17917
G1 X50.159 Y70.701 E9.20531
G1 X51.105 Y71.347 E9.24341
G1 X51.745 Y71.841 E9.2703
G1 X52.608 Y72.59 E9.30831
G1 X53.181 Y73.148 E9.33491
G1 X53.946 Y73.983 E9.37258
G1 X54.45 Y74.6 E9.39908
G1 X55.128 Y75.534 E9.43746
G1 X55.559 Y76.206 E9.46402
G1 X55.93 Y76.863 E9.48911
G1 X56.616 Y76.918 E9.512
G1 X57.14 Y77.003 E9.52966
G1 X57.21 Y76.971 E9.53222
G1 X58.048 Y76.705 E9.56146
G1 X58.353 Y76.629 E9.57191
G1 X59.088 Y76.487 E9.59681
G1 X59.833 Y76.424 E9.62168
G1 X60.581 Y76.441 E9.64656
G1 X61.323 Y76.538 E9.67145
G1 X62.05 Y76.714 E9.69633
G1 X62.754 Y76.966 E9.7212
G1 X63.318 Y77.239 E9.74204
G1 X63.745 Y77.337 E9.75661
G1 X64.032 Y77.422 E9.76657
G1 X64.737 Y77.673 E9.79146
G1 X65.411 Y77.997 E9.81633
G1 X66.047 Y78.391 E9.84122
G1 X66.637 Y78.851 E9.8661
G1 X67.174 Y79.371 E9.89096
G1 X67.653 Y79.946 E9.91585
G1 X68.068 Y80.568 E9.94072
G1 X68.414 Y81.232 E9.96563
G1 X68.687 Y81.928 E9.99049
G1 X68.885 Y82.65 E10.01539
G1 X69.004 Y83.388 E10.04025
G1 X69.044 Y84.134 E10.0651
G1 X69.044 Y85.954 E10.12564
G1 X69.004 Y86.701 E10.15052
G1 X68.885 Y87.439 E10.17538
G1 X68.687 Y88.161 E10.20028
G1 X68.414 Y88.857 E10.22515
G1 X68.067 Y89.52 E10.25004
G1 X67.652 Y90.143 E10.27493
G1 X67.173 Y90.717 E10.2998
G1 X66.636 Y91.238 E10.32468
G1 X66.046 Y91.697 E10.34955
G1 X65.41 Y92.092 E10.37445
G1 X64.736 Y92.416 E10.39932
G1 X64.004 Y92.674 E10.42513
G1 X63.716 Y92.758 E10.43511
G1 X62.988 Y92.929 E10.45999
G1 X62.245 Y93.021 E10.48489
G1 X61.497 Y93.033 E10.50977
G1 X61.037 Y92.992 E10.52513
G1 X60.543 Y93.102 E10.54196
G1 X59.799 Y93.186 E10.56686
G1 X59.15 Y93.189 E10.58845
G1 X58.958 Y93.206 E10.59486
G1 X58.57 Y93.208 E10.60777
G1 X57.168 Y93.176 E10.65441
G1 X56.643 Y93.144 E10.6719
G1 X56.009 Y93.082 E10.69309
G1 X55.553 Y93.889 E10.72392
G1 X55.114 Y94.571 E10.7509
G1 X54.433 Y95.505 E10.78934
G1 X53.932 Y96.116 E10.81562
G1 X53.166 Y96.95 E10.85329
G1 X52.596 Y97.505 E10.87975
G1 X51.733 Y98.253 E10.91773
G1 X51.093 Y98.746 E10.9446
G1 X50.146 Y99.392 E10.98273
G1 X49.461 Y99.803 E11.0093
G1 X48.454 Y100.333 E11.04715
G1 X47.737 Y100.661 E11.07337
G1 X46.67 Y101.077 E11.11146
G1 X45.901 Y101.326 E11.13835
G1 X44.802 Y101.614 E11.17613
G1 X44.019 Y101.773 E11.20271
G1 X42.886 Y101.935 E11.24077
G1 X42.097 Y102.002 E11.26711
G1 X40.953 Y102.035 E11.30518
G1 X40.141 Y102.011 E11.3322
G1 X39.009 Y101.912 E11.36999
G1 X38.229 Y101.8 E11.3962
G1 X37.104 Y101.572 E11.43438
G1 X36.33 Y101.368 E11.461
G1 X35.247 Y101.016 E11.49888
G1 X34.492 Y100.721 E11.52584
G1 X33.45 Y100.243 E11.56397
G1 X32.758 Y99.877 E11.59
G1 X31.785 Y99.291 E11.62778
G1 X31.119 Y98.837 E11.65459
G1 X30.221 Y98.144 E11.69232
G1 X29.622 Y97.625 E11.71868
G1 X28.802 Y96.829 E11.75669
G1 X28.253 Y96.23 E11.78371
G1 X27.524 Y95.336 E11.82208
G1 X27.056 Y94.69 E11.84861
G1 X26.44 Y93.729 E11.88658
G1 X26.051 Y93.04 E11.91289
G1 X25.549 Y92.019 E11.95073
G1 X25.24 Y91.289 E11.9771
G1 X24.856 Y90.216 E12.015
G1 X24.625 Y89.426 E12.04238
G1 X24.369 Y88.313 E12.08037
G1 X24.236 Y87.538 E12.10652
G1 X24.106 Y86.4 E12.14461
G1 X24.061 Y85.6 E12.17126
G1 X24.062 Y84.463 E12.20908
G1 X24.108 Y83.671 E12.23547
G1 X24.239 Y82.53 E12.27367
G1 X24.375 Y81.74 E12.30033
G1 X24.634 Y80.628 E12.3383
G1 X24.86 Y79.861 E12.3649
G1 X25.243 Y78.789 E12.40276
G1 X25.558 Y78.046 E12.4296
G1 X26.062 Y77.025 E12.46747
G1 X26.45 Y76.338 E12.49372
G1 X27.067 Y75.378 E12.53167
G1 X27.534 Y74.735 E12.5581
G1 X28.26 Y73.846 E12.59628
G1 X28.813 Y73.245 E12.62344
G1 X29.634 Y72.45 E12.66145
G1 X30.23 Y71.935 E12.68765
G1 X31.133 Y71.239 E12.72557
G1 X31.799 Y70.784 E12.7524
G1 X32.772 Y70.199 E12.79016
G1 X33.468 Y69.832 E12.81633
G0 F3000 X33.634 Y70.196
G1 F1200 X34.677 Y69.719 E12.85448
G1 X35.392 Y69.441 E12.87999
G1 X36.475 Y69.091 E12.91785
G1 X37.194 Y68.903 E12.94256
G1 X38.319 Y68.675 E12.98074
G1 X39.067 Y68.567 E13.00588
G1 X40.199 Y68.47 E13.04367
G1 X40.958 Y68.449 E13.06892
G1 X42.102 Y68.483 E13.10699
G1 X42.846 Y68.547 E13.13182
G1 X43.979 Y68.71 E13.1699
G1 X44.728 Y68.863 E13.19532
G1 X45.827 Y69.154 E13.23314
G1 X46.532 Y69.384 E13.2578
G1 X47.598 Y69.799 E13.29585
G1 X48.292 Y70.116 E13.32122
G1 X49.299 Y70.649 E13.35912
G1 X49.933 Y71.032 E13.38375
G1 X50.879 Y71.678 E13.42186
G1 X51.483 Y72.144 E13.44723
G1 X52.346 Y72.893 E13.48523
G1 X52.886 Y73.419 E13.51031
G1 X53.651 Y74.254 E13.54797
G1 X54.126 Y74.835 E13.57293
G1 X54.804 Y75.769 E13.61132
G1 X55.211 Y76.402 E13.63635
G1 X55.686 Y77.243 E13.66848
G1 X56.552 Y77.313 E13.69737
G1 X57.195 Y77.417 E13.71904
G1 X57.413 Y77.321 E13.72696
G1 X58.145 Y77.093 E13.75246
G1 X58.45 Y77.017 E13.76291
G1 X59.164 Y76.88 E13.7871
G1 X59.888 Y76.823 E13.81125
G1 X60.614 Y76.845 E13.83541
G1 X61.333 Y76.948 E13.85957
G1 X62.036 Y77.128 E13.8837
G1 X62.716 Y77.385 E13.90788
G1 X63.131 Y77.597 E13.92338
G1 X63.631 Y77.721 E13.94051
G1 X63.918 Y77.806 E13.95047
G1 X64.602 Y78.05 E13.97462
G1 X65.255 Y78.368 E13.99878
G1 X65.87 Y78.756 E14.02297
G1 X66.437 Y79.209 E14.0471
G1 X66.952 Y79.721 E14.07126
G1 X67.407 Y80.287 E14.09541
G1 X67.797 Y80.9 E14.11958
G1 X68.118 Y81.552 E14.14375
G1 X68.365 Y82.235 E14.16791
G1 X68.535 Y82.941 E14.19206
G1 X68.627 Y83.662 E14.21623
G1 X68.644 Y84.134 E14.23194
G1 X68.644 Y85.954 E14.29248
G1 X68.604 Y86.679 E14.31663
G1 X68.485 Y87.396 E14.3408
G1 X68.287 Y88.095 E14.36496
G1 X68.014 Y88.768 E14.38912
G1 X67.669 Y89.407 E14.41327
G1 X67.255 Y90.004 E14.43744
G1 X66.779 Y90.552 E14.46158
G1 X66.245 Y91.045 E14.48575
G1 X65.66 Y91.475 E14.5099
G1 X65.031 Y91.839 E14.53407
G1 X64.366 Y92.132 E14.55824
G1 X63.892 Y92.29 E14.57486
G1 X63.604 Y92.374 E14.58484
G1 X62.897 Y92.539 E14.60898
G1 X62.175 Y92.625 E14.63317
G1 X61.449 Y92.631 E14.65731
G1 X61.025 Y92.588 E14.67149
G1 X60.393 Y92.721 E14.69297
G1 X59.671 Y92.792 E14.7171
G1 X59.311 Y92.78 E14.72908
G1 X59.229 Y92.791 E14.73183
G1 X58.579 Y92.808 E14.75346
G1 X57.177 Y92.776 E14.8001
G1 X56.683 Y92.746 E14.81656
G1 X55.786 Y92.658 E14.84654
G1 X55.763 Y92.705 E14.84828
G1 X55.205 Y93.693 E14.88602
G1 X54.791 Y94.335 E14.91143
G1 X54.11 Y95.269 E14.94987
G1 X53.638 Y95.846 E14.97467
G1 X52.872 Y96.68 E15.01233
G1 X52.334 Y97.202 E15.03726
G1 X51.471 Y97.95 E15.07525
G1 X50.867 Y98.415 E15.1006
G1 X49.92 Y99.061 E15.13873
G1 X49.275 Y99.449 E15.16376
G1 X48.268 Y99.979 E15.20161
G1 X47.591 Y100.288 E15.22636
G1 X46.524 Y100.704 E15.26445
G1 X45.8 Y100.939 E15.28977
G1 X44.701 Y101.227 E15.32756
G1 X43.962 Y101.377 E15.35264
G1 X42.829 Y101.539 E15.3907
G1 X42.085 Y101.602 E15.41554
